X:2850
T:Charleston
R:reel
S:Garry Shannon
H:
N:
D:Lose the Head
Z:Adrian Scahill
M:2/2
L:1/8
K:A
ed|c2cB cBAB|cABA FADF|EAAG ABca|fdBA GBed|\
BccB cBAB|cABA FADF|EAAG Acfc|ecBc A4:||
bafa eAcf|eAce f3g|aee2 faec|dBcA Bfed|\
BccB cBAB|cABA FADF|EAAG Acfc|ecBc A4:||


